X: 1
T:Jock Wilson of Fenton
M:4/4
L:1/8
Z:C.G.P
Z:posted by Johnny Adams 12/98
K:D
|:AG|FAd2d2ed|cdefg2ag|fedc dfaf|gfed cBAG|FAd2d2ed|cdefg2ag|fedf
efge| f 2d2d2::dc|Bcde fede|fedcB2cB|ABcd edcd|edcB
ABAG|FAd2d2ed|cdef g2ag|fedf efge |f2d2d2:||
